24x24/actions/dialog-fill-and-stroke.svg

<svg xmlns="http://www.w3.org/2000/svg" width="24" height="24" viewBox="0 0 24 24">
 <defs>
  <style id="current-color-scheme" type="text/css">
   .ColorScheme-Text { color:#323a41; } .ColorScheme-Highlight { color:#4285f4; } .ColorScheme-NeutralText { color:#ff9800; } .ColorScheme-PositiveText { color:#4caf50; } .ColorScheme-NegativeText { color:#f44336; }
  </style>
 </defs>
 <path style="fill:currentColor" class="ColorScheme-Text" d="M 14.996094 1.0058594 C 14.812487 0.78929872 8.3600644 6.2490441 6.53125 8.5078125 C 6.2649108 8.8379653 6.1986807 9.076186 5.8496094 9.6972656 C 6.0753083 9.8746002 6.5081457 10.283029 6.8085938 10.988281 C 7.4087642 10.600106 7.6899471 10.541785 8.0078125 10.240234 C 10.084823 8.2707583 15.170992 1.2101619 14.996094 1.0058594 z M 4.9140625 10.216797 C 4.1311807 10.241243 3.3833503 10.908125 2.8632812 12.3125 C 2.2681909 13.9175 1.2061045 14.56071 1 14.521484 C 2.1089002 14.973402 5.4916475 16.127557 6.3320312 11.728516 C 5.974977 10.673498 5.25 10.244141 5.25 10.244141 C 5.1372413 10.221667 5.0259028 10.213305 4.9140625 10.216797 z" transform="translate(4 4)"/>
</svg>

<svg xmlns="http://www.w3.org/2000/svg" width="24" height="24"><defs><style id="current-color-scheme" type="text/css"></style></defs><path style="fill:currentColor;color:#323a41" d="M14.996 1.006C14.812.789 8.36 6.249 6.531 8.508c-.266.33-.332.568-.681 1.19.225.177.658.585.959 1.29.6-.388.88-.446 1.199-.748 2.077-1.97 7.163-9.03 6.988-9.234zm-10.082 9.21c-.783.025-1.53.692-2.05 2.097C2.267 13.916 1.205 14.56 1 14.52c1.109.452 4.492 1.607 5.332-2.792-.357-1.056-1.082-1.485-1.082-1.485a1.472 1.472 0 0 0-.336-.027z" transform="translate(4 4)"/></svg>
